!!!!SEGMENT: pl-wtm--r-597-m_moniuszko-stanislaw--fedra-piosnka-rybaka.krn
!!!cenid: 18xx:3015
!!!COM: Moniuszko, Stanisław
!!!COM-rismID: pe30008351
!!!CDT: 1819/05/05-1872/06/04
!!!CNT: Polish
!!!GTL: Fedra
!!!OTL: Piosnka Rybaka
!!!PDT: 1865
!!!AGN: Secular
!!!SMS-siglum: PL-Wtm
!!!SMS-shelfmark: R 597/M
!!!SMS-shelfwork: G
!!!SMS-variant:
!!!SMS-altvar:
!!!NIFC-rismSourceID: 1001090350
!!!NIFC-islandoraID:
!!!URL-pdf-islandora:
!!!URL-scan:
!!!ONB-nifc:
!!!AIN: 2 empty 1 flt
!!!key:
**kern	**kern	**dynam	**kern	**kern	**dynam	**kern	**dynam
*part3	*part3	*part3	*part2	*part2	*part2	*part1	*part1
*staff5	*staff4	*	*staff3	*staff2	*	*staff1	*
*Iempty	*Iempty	*	*Iempty	*Iphysh	*	*Iflt	*
*	*I"Arfa	*	*	*I"Physharmonica	*	*I"Flauto.	*
*>[A,A1,A,A2,B]	*>[A,A1,A,A2,B]	*>[A,A1,A,A2,B]	*>[A,A1,A,A2,B]	*>[A,A1,A,A2,B]	*>[A,A1,A,A2,B]	*>[A,A1,A,A2,B]	*>[A,A1,A,A2,B]
*>A	*>A	*>A	*>A	*>A	*>A	*>A	*>A
*clefF4	*clefG2	*	*clefF4	*clefG2	*	*clefG2	*
*k[]	*k[]	*	*k[]	*k[]	*	*k[]	*
*C:	*C:	*	*C:	*C:	*	*C:	*
*M6/8	*M6/8	*	*M6/8	*M6/8	*	*M6/8	*
*all\right	*all\right	*	*all\right	*all\right	*	*all\right	*
=1	=1	=1	=1	=1	=1	=1	=1
!	!LO:TX:a:t=trzeba zostawić linię na śpiew.:color=green	!	!	!	!	!LO:TX:a:t=ad libit	!
2.ryy	4r	.	2.ryy	4r	.	32d/LLL	.
.	.	.	.	.	.	32e/	.
.	.	.	.	.	.	32f/	.
.	.	.	.	.	.	32g/JJJ	.
.	.	.	.	.	.	4a;/	.
.	8r;	.	.	8r;	.	.	.
.	4r	.	.	4r	.	32g/LLL	.
.	.	.	.	.	.	32a/	.
.	.	.	.	.	.	32b/	.
.	.	.	.	.	.	32cc/JJJ	.
.	.	.	.	.	.	4dd;\	.
.	8r;	.	.	8r;	.	.	.
=2	=2	=2	=2	=2	=2	=2	=2
!	!	!	!	!	!	!LO:TX:a:i:t=piu lento	!
2.ryy	4r	.	2.ryy	4r	.	(32d/LLL	.
.	.	.	.	.	.	32e/)	.
.	.	.	.	.	.	32f'/	.
.	.	.	.	.	.	32g'/JJJ	.
.	.	.	.	.	.	4a;/	.
.	8r;	.	.	8r;	.	.	.
.	4r	.	.	4r	.	(32b\LLL	.
.	.	.	.	.	.	32cc\)	.
.	.	.	.	.	.	32dd'\	.
.	.	.	.	.	.	32ee'\JJJ	.
.	.	.	.	.	.	4ff;\	.
.	8r;	.	.	8r;	.	.	.
=3	=3	=3	=3	=3	=3	=3	=3
!	!	!	!	!	!LO:DY:rj:t=pp.	!LO:TX:a:i:t=Andantino.	!
4F 4D\	16r	.	4.A 4.D\	4.f 4.d/	pp	4r	.
.	16A/LL	.	.	.	.	.	.
.	16d/	.	.	.	.	.	.
.	16a/	.	.	.	.	.	.
8r	16d/	.	.	.	.	8r	.
.	16A/JJ	.	.	.	.	.	.
4E 4AA/	16r	.	4.A 4.AA\	4.e 4.c/	.	32a\LLL	.
.	.	.	.	.	.	32b\	.
.	16A/LL	.	.	.	.	32cc\	.
.	.	.	.	.	.	32dd\JJJ	.
.	16e/	.	.	.	.	8.ee\	.
.	16a/	.	.	.	.	.	.
8r	16e/	.	.	.	.	.	.
.	16A/JJ	.	.	.	.	16r	.
=4	=4	=4	=4	=4	=4	=4	=4
*rep	*rep	*	*rep	*rep	*	*rep	*
4F 4D\	16r	.	4.A 4.D\	4.f 4.d/	.	4r	.
.	16A/LL	.	.	.	.	.	.
.	16d/	.	.	.	.	.	.
.	16a/	.	.	.	.	.	.
8r	16d/	.	.	.	.	8r	.
.	16A/JJ	.	.	.	.	.	.
4E 4AA/	16r	.	4.A 4.AA\	4.e 4.c/	.	32a\LLL	.
.	.	.	.	.	.	32b\	.
.	16A/LL	.	.	.	.	32cc\	.
.	.	.	.	.	.	32dd\JJJ	.
.	16e/	.	.	.	.	8.ee\	.
.	16a/	.	.	.	.	.	.
8r	16e/	.	.	.	.	.	.
.	16A/JJ	.	.	.	.	16r	.
*Xrep	*Xrep	*	*Xrep	*Xrep	*	*Xrep	*
!!LO:LB:g=original
=5	=5	=5	=5	=5	=5	=5	=5
*	*	*	*^	*	*	*	*
*	*tremolo	*	*	*	*	*	*	*
8D\L	16fLL 16d/	.	2.A/	4.D\	4.f 4.d/	.	2.r	.
.	16a/	.	.	.	.	.	.	.
16.A^\L	16f 16d/	.	.	.	.	.	.	.
.	16a/	.	.	.	.	.	.	.
32A\JK	.	.	.	.	.	.	.	.
8A\J	16f 16d/	.	.	.	.	.	.	.
.	16a/JJ	.	.	.	.	.	.	.
!LO:TX:t=P:problem=mixed beam	!	!	!	!	!	!	!	!
8AA/L	16eLL 16c/	.	.	4.AA\	[4.e [>4.c/	.	.	.
.	16a/	.	.	.	.	.	.	.
16.A^\L	16e 16c/	.	.	.	.	.	.	.
.	16a/	.	.	.	.	.	.	.
32A\JK	.	.	.	.	.	.	.	.
8A\J	16e 16c/	.	.	.	.	.	.	.
.	16a/JJ	.	.	.	.	.	.	.
=6	=6	=6	=6	=6	=6	=6	=6	=6
8C\L	16eLL 16c/	.	2.G/	4.C\	4.e] 4.c/]	.	2.r	.
.	16g/	.	.	.	.	.	.	.
16.G^\L	16e 16c/	.	.	.	.	.	.	.
.	16g/	.	.	.	.	.	.	.
32G\JK	.	.	.	.	.	.	.	.
8G\J	16e 16c/	.	.	.	.	.	.	.
.	16g/JJ	.	.	.	.	.	.	.
!LO:TX:t=P:problem=mixed beam	!	!	!	!	!	!	!	!
8GG/L	16dLL 16B/	.	.	4.GG\	4.g 4.d 4.B/	.	.	.
.	16g/	.	.	.	.	.	.	.
16.G\L	16d 16B/	.	.	.	.	.	.	.
.	16g/	.	.	.	.	.	.	.
32G\JK	.	.	.	.	.	.	.	.
8G\J	16d 16B/	.	.	.	.	.	.	.
.	16g/JJ	.	.	.	.	.	.	.
*	*Xtremolo	*	*	*	*	*	*	*
=7	=7	=7	=7	=7	=7	=7	=7	=7
4D\	16r	.	4.A/	4.D\	2.f 2.d/	.	4r	.
.	16A/LL	.	.	.	.	.	.	.
.	16f 16d/	.	.	.	.	.	.	.
.	16A/	.	.	.	.	.	.	.
8r	16f 16d/	.	.	.	.	.	8r	.
.	16A/JJ	.	.	.	.	.	.	.
4D 4GG/	16r	.	4.B/	4.G\	.	.	(32g/LLL	.
.	.	.	.	.	.	.	32a/)	.
.	16G/LL	.	.	.	.	.	32b'/	.
.	.	.	.	.	.	.	32cc'/JJJ	.
.	16f 16B/	.	.	.	.	.	16dd'\LL	.
.	16G/	.	.	.	.	.	16g'\J	.
8r	16f 16B/	.	.	.	.	.	8dd^\J	.
.	16G/JJ	.	.	.	.	.	.	.
=8	=8	=8	=8	=8	=8	=8	=8	=8
*	*	*	*	*	*^	*	*	*
4.D 4.DD/	16r	.	4.A/	4.D\	2.f 2.d/	4.ryy	.	4r	.
.	16A/LL	.	.	.	.	.	.	.	.
.	16a 16f 16d^/	.	.	.	.	.	.	.	.
.	16A/	.	.	.	.	.	.	.	.
.	16f 16d/	.	.	.	.	.	.	8r	.
.	16A/JJ	.	.	.	.	.	.	.	.
!	!	!	!LO:TX:a:t=md.:rj	!	!	!	!	!	!
4GG/	16aLL 16f/	.	4.ryy	8GG\	.	8G</L	.	(32b\LLL	.
.	.	.	.	.	.	.	.	32cc\)	.
.	16G/	.	.	.	.	.	.	32dd'\	.
.	.	.	.	.	.	.	.	32ee'\JJJ	.
!	!	!	!	!	!	!	!	!LO:TX:t=P:problem=mixed beam	!
.	16c 16A/	.	.	8r	.	8A</	.	16ff'\LL	.
.	16G/	.	.	.	.	.	.	16g'/J	.
8r	16g 16B/	.	.	8r	.	8B</J	.	[8gg^\J	.
.	16fJJ 16d/	.	.	.	.	.	.	.	.
*	*	*	*v	*v	*	*	*	*	*
*	*	*	*	*v	*v	*	*	*
=9	=9	=9	=9	=9	=9	=9	=9
4C 4CC/	16eLL 16c/	<	4.C 4.CC/	(8e 8c/	<	(4.gg\_	.
.	16G/	.	.	.	.	.	.
.	16f 16d/	.	.	4f 4d/)	.	.	.
.	16G/	.	.	.	.	.	.
8r	16f 16A/	.	.	.	.	.	.
.	16B/JJ	[	.	.	[	.	.
4C 4CC/	16eLL 16c/	f	4C 4CC/	(8eL 8c/	sf	32gg\LLL]	.
.	.	>	.	.	.	32ff\)	.
.	16g/	.	.	.	.	32ee'\	.
.	.	.	.	.	>	32dd'\JJJ	.
.	16cc 16e/	.	.	8g 8e/	.	8cc\L	.
.	16g/	.	.	.	.	.	.
8D 8DD/	16f 16d/	.	8D 8DD/	8fJ 8d/)	.	(16a\L	.
.	16b/JJ	]]	.	.	]]	16ff\JJ)	.
!!LO:PB:g=original
=10	=10	=10	=10	=10	=10	=10	=10
!	!	!	!	!	!	!LO:TX:b:t=dolcissimo.	!
4E 4EE/	16aLL 16c/	.	4.E 4.EE/	4.e/	.	4.eett\	.
.	16e/	.	.	.	.	.	.
.	16c 16A/	.	.	.	.	.	.
.	16e/	.	.	.	.	.	.
8E\	16g#X 16B/	.	.	.	.	.	.
.	16e/JJ	.	.	.	.	.	.
.	.	.	.	.	.	16qqdd/LL	.
.	.	.	.	.	.	16qqee/JJ	.
!	!	!	!	!	!	!LO:N:vis=4	!
4E 4AA/	16cLL 16A/	.	4.AA/	4.e 4.A/	.	4.aa\	.
.	16e/	.	.	.	.	.	.
.	16a/	.	.	.	.	.	.
.	16e/	.	.	.	.	.	.
8r	16f/	.	.	.	.	.	.
.	16c/JJ	.	.	.	.	.	.
=11	=11	=11	=11	=11	=11	=11	=11
*	*	*	*	*^	*	*	*
4D\	16r	.	4.D\	2.f 2.d/	4.A\	.	(32d/LLL	.
.	.	.	.	.	.	.	32e/)	.
.	16A/LL	.	.	.	.	.	32f/	.
.	.	.	.	.	.	.	32g/JJJ	.
.	16f 16d/	.	.	.	.	.	4a/	.
.	16A/	.	.	.	.	.	.	.
8r	16f 16d/	.	.	.	.	.	.	.
.	16A/JJ	.	.	.	.	.	.	.
!LO:SIC:v:s=4GG	!	!	!LO:N:vis=4	!	!	!	!	!
4AA/	16r	.	4.GG/	.	4.B\	.	(32g/LLL	.
.	.	.	.	.	.	.	32a/	.
.	16G/LL	.	.	.	.	.	32b/)	.
.	.	.	.	.	.	.	32cc/JJJ	.
!	!	!	!	!	!	!	!LO:N:vis=4.	!
.	16f 16B/	.	.	.	.	.	4dd\	.
.	16G/	.	.	.	.	.	.	.
8r	16f 16B/	.	.	.	.	.	.	.
.	16G/JJ	.	.	.	.	.	.	.
*	*	*	*	*v	*v	*	*	*
=12	=12	=12	=12	=12	=12	=12	=12
4D\	16r	.	4.D\	4.f 4.d 4.A/	.	32d/LLL	.
.	.	.	.	.	.	32e/	.
.	16A/LL	.	.	.	.	32f/	.
.	.	.	.	.	.	32g/JJJ	.
.	16f 16d/	.	.	.	.	8a/	.
.	16A/	.	.	.	.	.	.
8r	16f 16d/	.	.	.	.	32b\LLL	<
.	.	.	.	.	.	32cc\	.
.	16c/JJ	.	.	.	.	32dd\	.
.	.	.	.	.	.	32ee\JJJ	[
4G 4D 4GG\	16fLL 16B/	.	4.G 4.GG\	(8.fL 8.B/	.	4ff^\	.
.	16d/	.	.	.	.	.	.
.	16g/	.	.	.	.	.	.
.	16G/	.	.	16d/K	.	.	.
8r	16f 16d/	.	.	8g/J)	.	8b\	.
.	16G/JJ	.	.	.	.	.	.
=13	=13	=13	=13	=13	=13	=13	=13
!LO:TX:t=1ma.	!	!	!	!	!	!	!
*>A1	*>A1	*>A1	*>A1	*>A1	*>A1	*>A1	*>A1
4C 4CC/	32r	.	(4C/	(>4b 4d/	.	8cc\	.
.	32G/LLL	.	.	.	.	.	.
.	32c/	.	.	.	.	.	.
.	32g/JJJ	.	.	.	.	.	.
.	8eL 8c/	.	.	.	.	8r	.
8D 8DD/	8fJ 8d 8A/	.	8D/	8b 8f 8d/	.	8r	.
!	!	!	!LO:TX:t=P:problem=mixed beam	!	!	!	!
8EL 8EE/	8eL 8c 8A/	.	8E\L	(>4a 4e 4c/	.	4r	.
8AA/	8e 8c 8A/	.	8A\)	.	.	.	.
8AAJ 8AAA/	8eJ 8c#X 8A/	.	8AA/J	8g 8e 8c#X/))	.	8r	.
!!LO:LB:g=original
=14:|!	=14:|!	=14:|!	=14:|!	=14:|!	=14:|!	=14:|!	=14:|!
!LO:TX:t=2da	!	!	!	!	!	!	!
*>A2	*>A2	*>A2	*>A2	*>A2	*>A2	*>A2	*>A2
*	*	*	*2\right	*	*	*2\right	*
16C\LL	8.e/L	.	[2.C 2.CC\	[2.e 2.c 2.G</	.	2.ccTT\	.
16G\	.	.	.	.	.	.	.
16c\	.	.	.	.	.	.	.
16C\	16g/L	.	.	.	.	.	.
16G\	16cc/	.	.	.	.	.	.
16c\JJ	16g/JJ	.	.	.	.	.	.
*rep	*rep	*	*	*	*	*	*
16C\LL	8.e/L	.	.	.	.	.	.
16G\	.	.	.	.	.	.	.
16c\	.	.	.	.	.	.	.
16C\	16g/L	.	.	.	.	.	.
16G\	16cc/	.	.	.	.	.	.
16c\JJ	16g/JJ	.	.	.	.	.	.
.	.	.	.	.	.	16qqb/LL	.
.	.	.	.	.	.	16qqcc/	.
.	.	.	.	.	.	16qqdd/JJ	.
*Xrep	*Xrep	*	*	*	*	*	*
=15	=15	=15	=15	=15	=15	=15	=15
*>B	*>B	*>B	*>B	*>B	*>B	*>B	*>B
8G 8E 8C\	8cc 8g 8e 8c^/	.	8C] 8CC\	8e] 8c 8G<^/	.	8cc\	.
8r	8r	.	8r	8r	.	8r	.
8r	8r	.	8r	8r	.	8r	.
4r	4r	.	4r	4r	.	4r	.
8r	8r	.	8r	8r	.	8r	.
==	==	==	==	==	==	==	==
*-	*-	*-	*-	*-	*-	*-	*-
!!!system-decoration: (<s1>{s2,s3}{s4,s5})
!!!RDF**kern: > = above
!!!RDF**kern: < = below
!!!ENC: Katarzyna Serwa
!!!END: 2021-08-31
!!!ENC: Andrzej Kubiczek
!!!END: 2021-09-26
